X:66
T:Sooner the Better. THO5.066, The
M:6/8
L:1/8
B:Thompson's Complete Collection of 200 Favourite Dances Vol.5
F:https://www.libraryofdance.org/manuals/1780c-Thompson-Compleat-5.pdf
Z:vmp. Peter Dunk 2024
Q:3/8=100
K:G
d|gdB dBG|cAG FED|GAG dBG|FAA A2 (A/G/)|
FAd ^ceg|fda a2(a/g/)|fed ^cAg|f d2 z2:|
|:d|dcB BAG|cee e2e|ed^c cBA|dff f2d|
gB=c def|gBc def|gde cAc|B G2 z2:|
W:
W:Cast off two Couples and Allemand with your right hand ./.
W:Cast up and Allemand with your left hand ./:
W:Lead down two Couples, up again and cast off :/.
W:Hands six quite round :/:

